X: 4
T: The Foggy Dew
R: reel
M: 4/4
L: 1/8
K: Gmaj
|: (EF) |G2 GA B2 g>f | e2 dB A2 G>A | B>AB>G E>GFA | G2 GF G2 :|
|: ef |(g2 g)f e2 f>g | a>g f>e d2 Bd | e2 e>f g>fe>d |[1 e3 d e2 ef :|[2 e3 d e2 |]


Tune 6862	Setting 6862

